asset_auto_exported/icn_bundle_transactions.svg

<?xml version="1.0" encoding="UTF-8"?>
<svg width="24px" height="24px" viewBox="0 0 24 24" version="1.1" xmlns="http://www.w3.org/2000/svg" xmlns:xlink="http://www.w3.org/1999/xlink">
    <title>icn_bundle_transactions</title>
    <g id="Quique" stroke="none" stroke-width="1" fill="none" fill-rule="evenodd">
        <g id="Assets/Global/24/BundleTransactions" fill="#000000" fill-rule="nonzero">
            <g id="-----ICON-LAYERS-----">
                <path d="M12,-0.0001 C18.627,-0.0001 24,5.3729 24,11.9999 C24,18.6279 18.627,23.9999 12,23.9999 C5.373,23.9999 0,18.6279 0,11.9999 C0,5.3729 5.373,-0.0001 12,-0.0001 Z M16.879,5.2011 L7.121,5.2011 L6.93905027,5.20522822 C5.50691437,5.27118051 4.642,6.12498638 4.642,7.5951 L4.642,7.5951 L4.642,16.4051 L4.64648487,16.5855641 C4.71806993,18.003451 5.6424541,18.7991 7.121,18.7991 L7.121,18.7991 L16.879,18.7991 L17.060836,18.7949673 C18.4921375,18.7289445 19.358,17.8742767 19.358,16.4051 L19.358,16.4051 L19.358,7.5951 L19.3535137,7.41458834 C19.2819057,5.99635295 18.3572417,5.2011 16.879,5.2011 L16.879,5.2011 Z M16.879,6.5011 C17.7242929,6.5011 18.058,6.80771013 18.058,7.5951 L18.058,7.5951 L18.058,16.4051 L18.0540408,16.5470508 C18.0142332,17.2291215 17.6710215,17.4991 16.879,17.4991 L16.879,17.4991 L7.121,17.4991 L6.96844312,17.4954626 C6.23521095,17.4588762 5.942,17.1431225 5.942,16.4051 L5.942,16.4051 L5.942,7.5951 L5.94594782,7.45299019 C5.98564521,6.77023049 6.32800541,6.5011 7.121,6.5011 L7.121,6.5011 Z M7.9072,14.343 C7.4822,14.343 7.2362,14.546 7.2362,14.981 C7.2362,15.418 7.4822,15.62 7.9072,15.62 C8.3312,15.62 8.5772,15.418 8.5772,14.981 C8.5772,14.546 8.3312,14.343 7.9072,14.343 Z M16.292,14.2678 L10.458,14.2678 L10.3619478,14.2748477 C10.0485082,14.3212735 9.808,14.5914499 9.808,14.9178 C9.808,15.2767851 10.0990149,15.5678 10.458,15.5678 L10.458,15.5678 L16.292,15.5678 L16.3880522,15.5607523 C16.7014918,15.5143265 16.942,15.2441501 16.942,14.9178 C16.942,14.5588149 16.6509851,14.2678 16.292,14.2678 L16.292,14.2678 Z M16.292,11.346 L10.458,11.346 L10.3619478,11.3530477 C10.0485082,11.3994735 9.808,11.6696499 9.808,11.996 C9.808,12.3549851 10.0990149,12.646 10.458,12.646 L10.458,12.646 L16.292,12.646 L16.3880522,12.6389523 C16.7014918,12.5925265 16.942,12.3223501 16.942,11.996 C16.942,11.6370149 16.6509851,11.346 16.292,11.346 L16.292,11.346 Z M7.9072,11.3615 C7.4822,11.3615 7.2362,11.5645 7.2362,11.9995 C7.2362,12.4365 7.4822,12.6395 7.9072,12.6395 C8.3312,12.6395 8.5772,12.4365 8.5772,11.9995 C8.5772,11.5645 8.3312,11.3615 7.9072,11.3615 Z M16.292,8.426 L10.458,8.426 L10.3619478,8.43304767 C10.0485082,8.47947354 9.808,8.74964992 9.808,9.076 C9.808,9.43498509 10.0990149,9.726 10.458,9.726 L10.458,9.726 L16.292,9.726 L16.3880522,9.71895233 C16.7014918,9.67252646 16.942,9.40235008 16.942,9.076 C16.942,8.71701491 16.6509851,8.426 16.292,8.426 L16.292,8.426 Z M7.9072,8.4142 C7.4822,8.4142 7.2362,8.6172 7.2362,9.0532 C7.2362,9.4892 7.4822,9.6922 7.9072,9.6922 C8.3312,9.6922 8.5772,9.4892 8.5772,9.0532 C8.5772,8.6172 8.3312,8.4142 7.9072,8.4142 Z" id="Combined-Shape"></path>
            </g>
        </g>
    </g>
</svg>

<svg width="24" height="24" viewBox="0 0 24 24" xmlns="http://www.w3.org/2000/svg"><path d="M12 0c6.627 0 12 5.373 12 12 0 6.628-5.373 12-12 12S0 18.628 0 12C0 5.373 5.373 0 12 0zM16.879 5.2H7.121l-.182.004c-1.432.066-2.297.92-2.297 2.39v8.81l.004.18c.072 1.418.996 2.214 2.475 2.214h9.758l.182-.004c1.431-.066 2.297-.92 2.297-2.39v-8.81l-.004-.18c-.072-1.419-.997-2.214-2.475-2.214zm0 1.3c.845 0 1.179.307 1.179 1.094v8.81l-.004.142c-.04.682-.383.952-1.175.952H7.121l-.153-.004c-.733-.036-1.026-.352-1.026-1.09v-8.81l.004-.142c.04-.683.382-.952 1.175-.952zm-8.972 7.842c-.425 0-.67.203-.67.638 0 .437.245.639.67.639.424 0 .67-.202.67-.639 0-.435-.246-.638-.67-.638zm8.385-.075h-5.834l-.096.007a.65.65 0 00.096 1.293h5.834l.096-.007a.65.65 0 00-.096-1.293zm0-2.922h-5.834l-.096.007a.65.65 0 00.096 1.293h5.834l.096-.007a.65.65 0 00-.096-1.293zm-8.385.015c-.425 0-.67.204-.67.638 0 .438.245.64.67.64.424 0 .67-.202.67-.64 0-.434-.246-.638-.67-.638zm8.385-2.935h-5.834l-.096.007a.65.65 0 00.096 1.293h5.834l.096-.007a.65.65 0 00-.096-1.293zm-8.385-.012c-.425 0-.67.203-.67.64 0 .435.245.638.67.638.424 0 .67-.203.67-.639s-.246-.639-.67-.639z" fill="#000" fill-rule="nonzero"/></svg>
